icons/modern/four-thirty.svg

<svg width="32" height="32" viewBox="0 0 32 32" fill="none" xmlns="http://www.w3.org/2000/svg">
<path d="M28.163 16C28.163 22.6274 22.7904 28 16.163 28C9.53558 28 4.16299 22.6274 4.16299 16C4.16299 9.37258 9.53558 4 16.163 4C22.7904 4 28.163 9.37258 28.163 16Z" fill="url(#paint0_radial_18_13543)"/>
<g filter="url(#filter0_f_18_13543)">
<path fill-rule="evenodd" clip-rule="evenodd" d="M14.1918 18.7293C13.6017 18.3843 13.2054 17.744 13.2054 17.0112C13.2054 15.9128 14.0958 15.0223 15.1942 15.0223C16.2867 15.0223 17.1735 15.9033 17.1829 16.9936L20.8619 19.1176C21.3402 19.3938 21.5041 20.0053 21.2279 20.4836C20.9518 20.9619 20.3402 21.1258 19.8619 20.8497L16.193 18.7314C16.1926 18.7316 16.1922 18.7318 16.1918 18.7321V25.0066C16.1918 25.5589 15.7441 26.0066 15.1918 26.0066C14.6395 26.0066 14.1918 25.5589 14.1918 25.0066V18.7293Z" fill="#C5C1C8"/>
</g>
<g filter="url(#filter1_i_18_13543)">
<path d="M16.1918 15.0112C16.7441 15.0112 17.1918 15.4589 17.1918 16.0112V24.0066C17.1918 24.5589 16.7441 25.0066 16.1918 25.0066C15.6395 25.0066 15.1918 24.5589 15.1918 24.0066V16.0112C15.1918 15.4589 15.6395 15.0112 16.1918 15.0112Z" fill="url(#paint1_linear_18_13543)"/>
<path d="M16.1918 15.0112C16.7441 15.0112 17.1918 15.4589 17.1918 16.0112V24.0066C17.1918 24.5589 16.7441 25.0066 16.1918 25.0066C15.6395 25.0066 15.1918 24.5589 15.1918 24.0066V16.0112C15.1918 15.4589 15.6395 15.0112 16.1918 15.0112Z" fill="url(#paint2_radial_18_13543)"/>
</g>
<path d="M22.2279 19.4836C21.9518 19.9619 21.3402 20.1258 20.8619 19.8497L15.6942 16.8661C15.2159 16.5899 15.052 15.9784 15.3282 15.5001C15.6043 15.0218 16.2159 14.8579 16.6942 15.134L21.8619 18.1176C22.3402 18.3938 22.5041 19.0053 22.2279 19.4836Z" fill="url(#paint3_linear_18_13543)"/>
<path d="M22.2279 19.4836C21.9518 19.9619 21.3402 20.1258 20.8619 19.8497L15.6942 16.8661C15.2159 16.5899 15.052 15.9784 15.3282 15.5001C15.6043 15.0218 16.2159 14.8579 16.6942 15.134L21.8619 18.1176C22.3402 18.3938 22.5041 19.0053 22.2279 19.4836Z" fill="url(#paint4_linear_18_13543)"/>
<path d="M22.2279 19.4836C21.9518 19.9619 21.3402 20.1258 20.8619 19.8497L15.6942 16.8661C15.2159 16.5899 15.052 15.9784 15.3282 15.5001C15.6043 15.0218 16.2159 14.8579 16.6942 15.134L21.8619 18.1176C22.3402 18.3938 22.5041 19.0053 22.2279 19.4836Z" fill="url(#paint5_radial_18_13543)"/>
<path d="M22.2279 19.4836C21.9518 19.9619 21.3402 20.1258 20.8619 19.8497L15.6942 16.8661C15.2159 16.5899 15.052 15.9784 15.3282 15.5001C15.6043 15.0218 16.2159 14.8579 16.6942 15.134L21.8619 18.1176C22.3402 18.3938 22.5041 19.0053 22.2279 19.4836Z" fill="url(#paint6_linear_18_13543)"/>
<g filter="url(#filter2_ii_18_13543)">
<path d="M16.163 27C22.2381 27 27.163 22.0751 27.163 16C27.163 9.92487 22.2381 5 16.163 5C10.0879 5 5.16299 9.92487 5.16299 16C5.16299 22.0751 10.0879 27 16.163 27ZM16.163 30C8.43101 30 2.16299 23.732 2.16299 16C2.16299 8.26801 8.43101 2 16.163 2C23.895 2 30.163 8.26801 30.163 16C30.163 23.732 23.895 30 16.163 30Z" fill="url(#paint7_linear_18_13543)"/>
</g>
<path d="M18.183 16.0112C18.183 17.1096 17.2926 18 16.1942 18C15.0958 18 14.2054 17.1096 14.2054 16.0112C14.2054 14.9128 15.0958 14.0223 16.1942 14.0223C17.2926 14.0223 18.183 14.9128 18.183 16.0112Z" fill="url(#paint8_radial_18_13543)"/>
<path d="M18.183 16.0112C18.183 17.1096 17.2926 18 16.1942 18C15.0958 18 14.2054 17.1096 14.2054 16.0112C14.2054 14.9128 15.0958 14.0223 16.1942 14.0223C17.2926 14.0223 18.183 14.9128 18.183 16.0112Z" fill="url(#paint9_radial_18_13543)"/>
<defs>
<filter id="filter0_f_18_13543" x="11.7054" y="13.5223" width="11.1567" height="13.9843" filterUnits="userSpaceOnUse" color-interpolation-filters="sRGB">
<feFlood flood-opacity="0" result="BackgroundImageFix"/>
<feBlend mode="normal" in="SourceGraphic" in2="BackgroundImageFix" result="shape"/>
<feGaussianBlur stdDeviation="0.75" result="effect1_foregroundBlur_18_13543"/>
</filter>
<filter id="filter1_i_18_13543" x="15.1918" y="15.0112" width="2.6" height="9.99536" filterUnits="userSpaceOnUse" color-interpolation-filters="sRGB">
<feFlood flood-opacity="0" result="BackgroundImageFix"/>
<feBlend mode="normal" in="SourceGraphic" in2="BackgroundImageFix" result="shape"/>
<feColorMatrix in="SourceAlpha" type="matrix" values="0 0 0 0 0 0 0 0 0 0 0 0 0 0 0 0 0 0 127 0" result="hardAlpha"/>
<feOffset dx="0.6"/>
<feGaussianBlur stdDeviation="0.425"/>
<feComposite in2="hardAlpha" operator="arithmetic" k2="-1" k3="1"/>
<feColorMatrix type="matrix" values="0 0 0 0 0.635294 0 0 0 0 0.227451 0 0 0 0 0.403922 0 0 0 1 0"/>
<feBlend mode="normal" in2="shape" result="effect1_innerShadow_18_13543"/>
</filter>
<filter id="filter2_ii_18_13543" x="1.76299" y="1.6" width="28.8" height="28.8" filterUnits="userSpaceOnUse" color-interpolation-filters="sRGB">
<feFlood flood-opacity="0" result="BackgroundImageFix"/>
<feBlend mode="normal" in="SourceGraphic" in2="BackgroundImageFix" result="shape"/>
<feColorMatrix in="SourceAlpha" type="matrix" values="0 0 0 0 0 0 0 0 0 0 0 0 0 0 0 0 0 0 127 0" result="hardAlpha"/>
<feOffset dx="0.4" dy="-0.4"/>
<feGaussianBlur stdDeviation="0.3"/>
<feComposite in2="hardAlpha" operator="arithmetic" k2="-1" k3="1"/>
<feColorMatrix type="matrix" values="0 0 0 0 0.282353 0 0 0 0 0.254902 0 0 0 0 0.313726 0 0 0 1 0"/>
<feBlend mode="normal" in2="shape" result="effect1_innerShadow_18_13543"/>
<feColorMatrix in="SourceAlpha" type="matrix" values="0 0 0 0 0 0 0 0 0 0 0 0 0 0 0 0 0 0 127 0" result="hardAlpha"/>
<feOffset dx="-0.4" dy="0.4"/>
<feGaussianBlur stdDeviation="0.3"/>
<feComposite in2="hardAlpha" operator="arithmetic" k2="-1" k3="1"/>
<feColorMatrix type="matrix" values="0 0 0 0 0.533333 0 0 0 0 0.533333 0 0 0 0 0.533333 0 0 0 1 0"/>
<feBlend mode="normal" in2="effect1_innerShadow_18_13543" result="effect2_innerShadow_18_13543"/>
</filter>
<radialGradient id="paint0_radial_18_13543" cx="0" cy="0" r="1" gradientUnits="userSpaceOnUse" gradientTransform="translate(10.655 23.2842) rotate(-46.2124) scale(21.6828)">
<stop offset="0.598155" stop-color="#DDDADF"/>
<stop offset="1" stop-color="#BDBABF"/>
</radialGradient>
<linearGradient id="paint1_linear_18_13543" x1="16.1918" y1="15.0112" x2="16.1918" y2="25.0066" gradientUnits="userSpaceOnUse">
<stop stop-color="#F74093"/>
<stop offset="1" stop-color="#F83F4C"/>
</linearGradient>
<radialGradient id="paint2_radial_18_13543" cx="0" cy="0" r="1" gradientUnits="userSpaceOnUse" gradientTransform="translate(16.1918 17.1054) rotate(90) scale(2.48477 1.20957)">
<stop offset="0.115385" stop-color="#911A57"/>
<stop offset="1" stop-color="#911A57" stop-opacity="0"/>
</radialGradient>
<linearGradient id="paint3_linear_18_13543" x1="22.2279" y1="19.4836" x2="17.1951" y2="16.5779" gradientUnits="userSpaceOnUse">
<stop stop-color="#32183D"/>
<stop offset="1" stop-color="#2C3A65"/>
</linearGradient>
<linearGradient id="paint4_linear_18_13543" x1="20.1037" y1="17.1025" x2="19.6037" y2="17.9686" gradientUnits="userSpaceOnUse">
<stop stop-color="#2E2840"/>
<stop offset="1" stop-color="#2E2840" stop-opacity="0"/>
</linearGradient>
<radialGradient id="paint5_radial_18_13543" cx="0" cy="0" r="1" gradientUnits="userSpaceOnUse" gradientTransform="translate(21.5834 19.8151) rotate(-150) scale(5.73026 0.815281)">
<stop stop-color="#50375F"/>
<stop offset="1" stop-color="#50375F" stop-opacity="0"/>
</radialGradient>
<linearGradient id="paint6_linear_18_13543" x1="22.2279" y1="19.4836" x2="21.6064" y2="19.1248" gradientUnits="userSpaceOnUse">
<stop stop-color="#3E1846"/>
<stop offset="1" stop-color="#3E1846" stop-opacity="0"/>
</linearGradient>
<linearGradient id="paint7_linear_18_13543" x1="24.6738" y1="4.01349" x2="4.44679" y2="28.5336" gradientUnits="userSpaceOnUse">
<stop stop-color="#6D6B70"/>
<stop offset="1" stop-color="#706C74"/>
</linearGradient>
<radialGradient id="paint8_radial_18_13543" cx="0" cy="0" r="1" gradientUnits="userSpaceOnUse" gradientTransform="translate(17.274 15.5527) rotate(134.039) scale(3.40442)">
<stop stop-color="#C9C6CC"/>
<stop offset="1" stop-color="#928E95"/>
</radialGradient>
<radialGradient id="paint9_radial_18_13543" cx="0" cy="0" r="1" gradientUnits="userSpaceOnUse" gradientTransform="translate(16.7567 15.5047) rotate(139.399) scale(2.88111)">
<stop offset="0.527069" stop-color="#776F7F" stop-opacity="0"/>
<stop offset="1" stop-color="#776F7F"/>
</radialGradient>
</defs>
</svg>

<svg width="32" height="32" fill="none" xmlns="http://www.w3.org/2000/svg"><path d="M28.163 16c0 6.627-5.373 12-12 12s-12-5.373-12-12 5.373-12 12-12 12 5.373 12 12Z" fill="url(#a)"/><g filter="url(#b)"><path fill-rule="evenodd" clip-rule="evenodd" d="M14.192 18.73a1.988 1.988 0 0 1 1.002-3.708c1.093 0 1.98.881 1.989 1.972l3.679 2.124a1 1 0 1 1-1 1.732l-3.669-2.119-.001.001v6.275a1 1 0 1 1-2 0v-6.278Z" fill="#C5C1C8"/></g><g filter="url(#c)"><path d="M16.192 15.011a1 1 0 0 1 1 1v7.996a1 1 0 1 1-2 0V16.01a1 1 0 0 1 1-1Z" fill="url(#d)"/><path d="M16.192 15.011a1 1 0 0 1 1 1v7.996a1 1 0 1 1-2 0V16.01a1 1 0 0 1 1-1Z" fill="url(#e)"/></g><path d="M22.228 19.484a1 1 0 0 1-1.366.366l-5.168-2.984a1 1 0 1 1 1-1.732l5.168 2.984a1 1 0 0 1 .366 1.366Z" fill="url(#f)"/><path d="M22.228 19.484a1 1 0 0 1-1.366.366l-5.168-2.984a1 1 0 1 1 1-1.732l5.168 2.984a1 1 0 0 1 .366 1.366Z" fill="url(#g)"/><path d="M22.228 19.484a1 1 0 0 1-1.366.366l-5.168-2.984a1 1 0 1 1 1-1.732l5.168 2.984a1 1 0 0 1 .366 1.366Z" fill="url(#h)"/><path d="M22.228 19.484a1 1 0 0 1-1.366.366l-5.168-2.984a1 1 0 1 1 1-1.732l5.168 2.984a1 1 0 0 1 .366 1.366Z" fill="url(#i)"/><g filter="url(#j)"><path d="M16.163 27c6.075 0 11-4.925 11-11s-4.925-11-11-11-11 4.925-11 11 4.925 11 11 11Zm0 3c-7.732 0-14-6.268-14-14s6.268-14 14-14 14 6.268 14 14-6.268 14-14 14Z" fill="url(#k)"/></g><path d="M18.183 16.011a1.989 1.989 0 1 1-3.978 0 1.989 1.989 0 0 1 3.978 0Z" fill="url(#l)"/><path d="M18.183 16.011a1.989 1.989 0 1 1-3.978 0 1.989 1.989 0 0 1 3.978 0Z" fill="url(#m)"/><defs><radialGradient id="a" cx="0" cy="0" r="1" gradientUnits="userSpaceOnUse" gradientTransform="rotate(-46.212 32.614 -.844) scale(21.6828)"><stop offset=".598" stop-color="#DDDADF"/><stop offset="1" stop-color="#BDBABF"/></radialGradient><radialGradient id="e" cx="0" cy="0" r="1" gradientUnits="userSpaceOnUse" gradientTransform="matrix(0 2.48477 -1.20957 0 16.192 17.105)"><stop offset=".115" stop-color="#911A57"/><stop offset="1" stop-color="#911A57" stop-opacity="0"/></radialGradient><radialGradient id="h" cx="0" cy="0" r="1" gradientUnits="userSpaceOnUse" gradientTransform="rotate(-150 13.446 7.016) scale(5.73026 .81528)"><stop stop-color="#50375F"/><stop offset="1" stop-color="#50375F" stop-opacity="0"/></radialGradient><radialGradient id="l" cx="0" cy="0" r="1" gradientUnits="userSpaceOnUse" gradientTransform="rotate(134.039 5.34 11.44) scale(3.40442)"><stop stop-color="#C9C6CC"/><stop offset="1" stop-color="#928E95"/></radialGradient><radialGradient id="m" cx="0" cy="0" r="1" gradientUnits="userSpaceOnUse" gradientTransform="rotate(139.399 5.51 10.852) scale(2.88111)"><stop offset=".527" stop-color="#776F7F" stop-opacity="0"/><stop offset="1" stop-color="#776F7F"/></radialGradient><linearGradient id="d" x1="16.192" y1="15.011" x2="16.192" y2="25.007" gradientUnits="userSpaceOnUse"><stop stop-color="#F74093"/><stop offset="1" stop-color="#F83F4C"/></linearGradient><linearGradient id="f" x1="22.228" y1="19.484" x2="17.195" y2="16.578" gradientUnits="userSpaceOnUse"><stop stop-color="#32183D"/><stop offset="1" stop-color="#2C3A65"/></linearGradient><linearGradient id="g" x1="20.104" y1="17.102" x2="19.604" y2="17.969" gradientUnits="userSpaceOnUse"><stop stop-color="#2E2840"/><stop offset="1" stop-color="#2E2840" stop-opacity="0"/></linearGradient><linearGradient id="i" x1="22.228" y1="19.484" x2="21.606" y2="19.125" gradientUnits="userSpaceOnUse"><stop stop-color="#3E1846"/><stop offset="1" stop-color="#3E1846" stop-opacity="0"/></linearGradient><linearGradient id="k" x1="24.674" y1="4.013" x2="4.447" y2="28.534" gradientUnits="userSpaceOnUse"><stop stop-color="#6D6B70"/><stop offset="1" stop-color="#706C74"/></linearGradient><filter id="b" x="11.705" y="13.522" width="11.157" height="13.984" filterUnits="userSpaceOnUse" color-interpolation-filters="sRGB"><feFlood flood-opacity="0" result="BackgroundImageFix"/><feBlend in="SourceGraphic" in2="BackgroundImageFix" result="shape"/><feGaussianBlur stdDeviation=".75" result="effect1_foregroundBlur_18_13543"/></filter><filter id="c" x="15.192" y="15.011" width="2.6" height="9.995" filterUnits="userSpaceOnUse" color-interpolation-filters="sRGB"><feFlood flood-opacity="0" result="BackgroundImageFix"/><feBlend in="SourceGraphic" in2="BackgroundImageFix" result="shape"/><feColorMatrix in="SourceAlpha" values="0 0 0 0 0 0 0 0 0 0 0 0 0 0 0 0 0 0 127 0" result="hardAlpha"/><feOffset dx=".6"/><feGaussianBlur stdDeviation=".425"/><feComposite in2="hardAlpha" operator="arithmetic" k2="-1" k3="1"/><feColorMatrix values="0 0 0 0 0.635294 0 0 0 0 0.227451 0 0 0 0 0.403922 0 0 0 1 0"/><feBlend in2="shape" result="effect1_innerShadow_18_13543"/></filter><filter id="j" x="1.763" y="1.6" width="28.8" height="28.8" filterUnits="userSpaceOnUse" color-interpolation-filters="sRGB"><feFlood flood-opacity="0" result="BackgroundImageFix"/><feBlend in="SourceGraphic" in2="BackgroundImageFix" result="shape"/><feColorMatrix in="SourceAlpha" values="0 0 0 0 0 0 0 0 0 0 0 0 0 0 0 0 0 0 127 0" result="hardAlpha"/><feOffset dx=".4" dy="-.4"/><feGaussianBlur stdDeviation=".3"/><feComposite in2="hardAlpha" operator="arithmetic" k2="-1" k3="1"/><feColorMatrix values="0 0 0 0 0.282353 0 0 0 0 0.254902 0 0 0 0 0.313726 0 0 0 1 0"/><feBlend in2="shape" result="effect1_innerShadow_18_13543"/><feColorMatrix in="SourceAlpha" values="0 0 0 0 0 0 0 0 0 0 0 0 0 0 0 0 0 0 127 0" result="hardAlpha"/><feOffset dx="-.4" dy=".4"/><feGaussianBlur stdDeviation=".3"/><feComposite in2="hardAlpha" operator="arithmetic" k2="-1" k3="1"/><feColorMatrix values="0 0 0 0 0.533333 0 0 0 0 0.533333 0 0 0 0 0.533333 0 0 0 1 0"/><feBlend in2="effect1_innerShadow_18_13543" result="effect2_innerShadow_18_13543"/></filter></defs></svg>
